svg/列表布局.svg

<svg fill="none" viewBox="0 0 24 24"><path stroke="#0D131A" stroke-linecap="round" stroke-linejoin="round" stroke-width="1.5" d="M10 4.5h11"/><path stroke="#0D131A" stroke-linecap="round" stroke-linejoin="round" stroke-width="1.5" d="M10 9.5h11"/><path stroke="#0D131A" stroke-linecap="round" stroke-linejoin="round" stroke-width="1.5" d="M10 14.5h11"/><path stroke="#0D131A" stroke-linecap="round" stroke-linejoin="round" stroke-width="1.5" d="M10 19.5h11"/><path stroke="#0D131A" stroke-linecap="round" stroke-linejoin="round" stroke-width="1.5" d="M3 14.5h3V16l-3 3v.5h3"/><path stroke="#0D131A" stroke-linecap="round" stroke-linejoin="round" stroke-width="1.5" d="m3.5 5.5 1-1v5m0 0h-1m1 0h1"/></svg>

<svg width="24" height="24" viewBox="0 0 24 24" fill="none" xmlns="http://www.w3.org/2000/svg"><rect x="-59.9712" y="-52.8101" width="334.406" height="150.877" stroke="#F97316"/><path d="M10 4.5H21" stroke="#0D131A" stroke-width="1.5" stroke-linecap="round" stroke-linejoin="round"/><path d="M10 9.5H21" stroke="#0D131A" stroke-width="1.5" stroke-linecap="round" stroke-linejoin="round"/><path d="M10 14.5H21" stroke="#0D131A" stroke-width="1.5" stroke-linecap="round" stroke-linejoin="round"/><path d="M10 19.5H21" stroke="#0D131A" stroke-width="1.5" stroke-linecap="round" stroke-linejoin="round"/><path d="M3 14.5H6V16L3 19V19.5H6" stroke="#0D131A" stroke-width="1.5" stroke-linecap="round" stroke-linejoin="round"/><path d="M3.5 5.5L4.5 4.5V9.5M4.5 9.5H3.5M4.5 9.5H5.5" stroke="#0D131A" stroke-width="1.5" stroke-linecap="round" stroke-linejoin="round"/></svg>
